!!! OTL: Berkowitz62
!!! Chapter: 1
!!! Section: I
!!! Page: 17
!!! Mode: 
!!! Encoder: DJB
**kern
*staff1
*I"Piano
=1-
*clefC3
*k[b-e-a-]
*E-:
*met(c|)
*M2/2
4e-\
4b-\
4g\
8a-\L
8b-\J
=2
8cc\L
8b-\
8a-\
8g\J
4f\
8g\L
8b-\J
=3
8b-\L
8a-\
8g\
8f\J
4e-\
4g\
=4
4.f\
8e-\
2f\
=5
4e-\
4b-\
4g\
8a-\L
8b-\J
=6
8cc\L
8b-\
8cc\
8dd\J
2ee-\
=7
4g\
8f\L
8e-\J
4.f\
8g\
=8
!!linebreak:original
2f\
2e-\
==
*-
